images/basket.svg

<svg width="30" height="28" viewBox="0 0 30 28" fill="none" xmlns="http://www.w3.org/2000/svg">
<path d="M9 22.2222C7.35 22.2222 6.015 23.4722 6.015 25C6.015 26.5278 7.35 27.7778 9 27.7778C10.65 27.7778 12 26.5278 12 25C12 23.4722 10.65 22.2222 9 22.2222ZM0 0V2.77778H3L8.4 13.3194L6.375 16.7222C6.135 17.1111 6 17.5694 6 18.0556C6 19.5833 7.35 20.8333 9 20.8333H27V18.0556H9.63C9.42 18.0556 9.255 17.9028 9.255 17.7083L9.3 17.5417L10.65 15.2778H21.825C22.95 15.2778 23.94 14.7083 24.45 13.8472L29.82 4.83333C29.94 4.63889 30 4.40278 30 4.16667C30 3.40278 29.325 2.77778 28.5 2.77778H6.315L4.905 0H0ZM24 22.2222C22.35 22.2222 21.015 23.4722 21.015 25C21.015 26.5278 22.35 27.7778 24 27.7778C25.65 27.7778 27 26.5278 27 25C27 23.4722 25.65 22.2222 24 22.2222Z" fill="black"/>
</svg>

<svg width="30" height="28" fill="none" xmlns="http://www.w3.org/2000/svg"><path d="M9 22.222c-1.65 0-2.985 1.25-2.985 2.778S7.35 27.778 9 27.778s3-1.25 3-2.778-1.35-2.778-3-2.778ZM0 0v2.778h3l5.4 10.541-2.025 3.403c-.24.39-.375.847-.375 1.334 0 1.527 1.35 2.777 3 2.777h18v-2.777H9.63c-.21 0-.375-.153-.375-.348l.045-.166 1.35-2.264h11.175c1.125 0 2.115-.57 2.625-1.43l5.37-9.015c.12-.194.18-.43.18-.666 0-.764-.675-1.39-1.5-1.39H6.315L4.905 0H0Zm24 22.222c-1.65 0-2.985 1.25-2.985 2.778S22.35 27.778 24 27.778s3-1.25 3-2.778-1.35-2.778-3-2.778Z" fill="#000"/></svg>
